X: 909
T: Gözlerinden İçti Gönlüm Neş`eyi
C: Şükrü Şenozan
O: Turkey
F: http://compmusic.upf.edu/node/140
N: segah--sarki--musemmen--gozlerinden_icti--sukru_senozan
N: makam= segah
N: form= sarki
N: usul= musemmen = 8/8
M: 8/8
L: 1/16
K: C _1/4B _1/4e ^f 
Q: 1/4=120
%%MIDI tuningsystem comma53
G4 ^A2B4B4z2  | d4 e^3/4fg2 ^fed6  | \
w:  ARANAĞME  |   | 
g4 ^1/4f2e2 d2e4z2  | =f4 e2d2 c2d4z2  | 
w:   |   | 
e4 d2d2 c2B4^A2  | B4 d2c2 B^AB4z2  | \
w:   |   | 
G4 ^A2B4B4z2  | d4 e^3/4fg2 ^fed6  | 
w:  ARANAĞME  |   | 
g4 ^1/4f2e2 d2e4z2  | =f4 e2d2 c2d4z2  | \
w:   |   | 
e4 d2d2 c2B4^A2  | B4 d2c2 B^AB4z2  | 
w:   |   | 
G4 ^A2B4c2 B2A2  | d4 ef{a}g2 ^1/4fed6  | \
w:  Göz le rin den   |  iç ti  *  *  gön *  *  lüm   | 
d4 e2c4d2 {e}dcB2  | e2d2 c2B2 ^A2B2 G4  | 
w:  neş e yi   SAZ  |   | 
G4 ^A2B4c2 B2A2  | d4 ef{a}g2 ^1/4fed6  | \
w:  Göz le rin den   |  iç ti  *  *  gön *  *  lüm   | 
B4 c2d8-d2  | g4 {a}gf{a}f_2/4e edd6  | 
w:  neş e yi    |  SAZ  | 
d4 g2g4ag f_2/4ed2  | _2/4e3/2d/e2 g2f2 gff4f_1/4e  | \
w:  Sen den_ öğ ren  |  dim  *  *  gö nül *  *  den   | 
e4 c2e2 g2^3/4f2 e2d2  | 
w:  sev me yi    | 
g4 gffe edd4z2  | d4 g2=f2 =e2d4c2  | \
w:  SAZ  |  Sen den_ öğ *  ren  | 
B4 e2d2 c2B4^AG  | 
w:  dim  gö nül *  den   | 
G4 ^A2B8-B2  | f4 g2ag f^ef6  | f4 a2g2 agf4a2  | \
w:  sev me yi    |  SAZ  |  Sil di  aş *  *  kın   | 
g2f2 =e2a4g2 ^3/4f_1/4ed2  | 
w:  göz *  le rim den   | 
d4 e2d2 cBg2 ^1/4f2e2  | a4 agg2 =fed6  | \
w:  her  şe yi  *  *  ah   |  her  şe *  yi    | 
f4 a2g2 f^ef6  | 
w:  SAZ  | 
f4 a2g2 agf4a2  | g2f2 =e2a4g2 ^3/4f_1/4ed2  | \
w:  Sil di  aş *  *  kın   |  göz *  le rim den   | 
d4 e2d2 cBg2 ^1/4f2e2  | 
w:  her  şe yi  *  *  ah   | 
a4 agg2 =fed6  | g4 {a}gf{a}f_3/4e edd6  | \
w:  her  şe *  yi    |  SAZ  | 
d4 g2g4ag f_2/4ed2  | 
w:  Sen den_ öğ ren  | 
_2/4e3/2d/e2 g2f2 gff4f_1/4e  | e4 c2e2 g2^3/4f2 e2d2  | \
w:  dim  *  *  gö nül *  *  den   |  sev me yi    | 
g4 gffe edd4z2  | 
w:  SAZ  | 
d4 g2=f2 =e2d4c2  | B4 e2d2 c2B4^AG  | \
w:  Sen den_ öğ *  ren  |  dim  gö nül *  den   | 
G4 ^A2B8-B2  | |


